polaris-icons/icons/new-icons/TransactionFeeEuroMajor.svg

<svg width="20" height="20" viewBox="0 0 20 20" fill="none" xmlns="http://www.w3.org/2000/svg">
<path fill-rule="evenodd" clip-rule="evenodd" d="M4 5.25C4 4.00736 5.00736 3 6.25 3C7.22966 3 8.06309 3.62611 8.37197 4.5H11.628C11.9369 3.62611 12.7703 3 13.75 3C14.9926 3 16 4.00736 16 5.25C16 6.49264 14.9926 7.5 13.75 7.5C12.7703 7.5 11.9369 6.87389 11.628 6H8.75V11.25C8.75 11.9404 9.30964 12.5 10 12.5H10.25C10.6642 12.5 11 12.8358 11 13.25C11 13.6642 10.6642 14 10.25 14H10C8.48122 14 7.25 12.7688 7.25 11.25V7.26612C6.94876 7.41582 6.60921 7.5 6.25 7.5C5.00736 7.5 4 6.49264 4 5.25ZM6.25 4.5C5.83579 4.5 5.5 4.83579 5.5 5.25C5.5 5.66421 5.83579 6 6.25 6C6.66421 6 7 5.66421 7 5.25C7 4.83579 6.66421 4.5 6.25 4.5ZM13.75 4.5C13.3358 4.5 13 4.83579 13 5.25C13 5.66421 13.3358 6 13.75 6C14.1642 6 14.5 5.66421 14.5 5.25C14.5 4.83579 14.1642 4.5 13.75 4.5Z" fill="#4A4A4A"/>
<path d="M14.0534 12.4684C14.1812 11.6452 14.5122 11.2607 14.7609 11.1115C15.0699 10.9261 15.4454 10.9745 15.7197 11.2488C16.0126 11.5417 16.4874 11.5417 16.7803 11.2488C17.0732 10.9559 17.0732 10.481 16.7803 10.1881C16.0546 9.46238 14.9301 9.26072 13.9891 9.82531C13.2024 10.2974 12.6858 11.2104 12.5413 12.4684H12.25C11.8358 12.4684 11.5 12.8042 11.5 13.2184C11.5 13.6326 11.8358 13.9684 12.25 13.9684H12.5413C12.6857 15.2265 13.2024 16.1396 13.9891 16.6116C14.9301 17.1762 16.0546 16.9745 16.7803 16.2488C17.0732 15.9559 17.0732 15.481 16.7803 15.1881C16.4875 14.8952 16.0126 14.8952 15.7197 15.1881C15.4454 15.4624 15.0699 15.5108 14.7609 15.3254C14.5122 15.1762 14.1811 14.7917 14.0534 13.9684H15.75C16.1642 13.9684 16.5 13.6326 16.5 13.2184C16.5 12.8042 16.1642 12.4684 15.75 12.4684H14.0534Z" fill="#4A4A4A"/>
</svg>

<svg viewBox="0 0 20 20" xmlns="http://www.w3.org/2000/svg"><path fill-rule="evenodd" d="M4 5.25a2.25 2.25 0 0 1 4.372-.75h3.256a2.251 2.251 0 1 1 0 1.5h-2.878v5.25c0 .69.56 1.25 1.25 1.25h.25a.75.75 0 0 1 0 1.5h-.25a2.75 2.75 0 0 1-2.75-2.75v-3.984a2.25 2.25 0 0 1-3.25-2.016Zm2.25-.75a.75.75 0 1 0 0 1.5.75.75 0 0 0 0-1.5Zm7.5 0a.75.75 0 1 0 0 1.5.75.75 0 0 0 0-1.5Z" fill="#5C5F62"/><path d="M14.053 12.468c.128-.823.46-1.207.708-1.357.309-.185.684-.136.959.138a.75.75 0 1 0 1.06-1.06c-.725-.727-1.85-.928-2.79-.364-.788.472-1.304 1.385-1.449 2.643h-.291a.75.75 0 0 0 0 1.5h.291c.145 1.258.661 2.172 1.448 2.644.941.564 2.066.363 2.791-.363a.75.75 0 0 0-1.06-1.06c-.275.273-.65.322-.96.136-.248-.149-.579-.533-.707-1.357h1.697a.75.75 0 0 0 0-1.5h-1.697Z" fill="#5C5F62"/></svg>
